X: 1492
T: Androniacke
R: polka
M: 2/4
K: Aminor
|:Ac BA|e2Ac-|cA cd|Bc BA|Ac BA|e2Ag-|gd ed|cB cB|
Ac BA|e2Ac-|cA cd|Bc BA|Ac BA|Ac BA|Ac BA|Ac BA:|
|:a2de-|ed Bd|bc' bc'|bc' bc'|a2de-|ed Bc|BG Bd|ga bc'|
a2de-|ed Bd|bc' bc'|bc' bc'|e'c' d'b|c'b ag|ae de|BG Bd:|

